svg/fluentui-system-icons/ic_fluent_image_table_20_filled.svg

<svg width="20" height="20" viewBox="0 0 20 20" fill="none" xmlns="http://www.w3.org/2000/svg">
<path d="M6 3C4.34315 3 3 4.34315 3 6H6V3ZM3 7V13H6V7H3ZM7 6H13V3H7V6ZM14 3V6H17C17 4.34315 15.6569 3 14 3ZM17 7H14V13H17V7ZM17 14H14V17C15.6569 17 17 15.6569 17 14ZM13 17V14H7V17H13ZM6 17V14H3C3 15.6569 4.34315 17 6 17ZM7 7V13H7.29588L8.79796 11.4979C9.46186 10.834 10.5382 10.834 11.2021 11.4979L12.7042 13H13V7H7ZM11 8C11.5523 8 12 8.44772 12 9C12 9.55228 11.5523 10 11 10C10.4477 10 10 9.55228 10 9C10 8.44772 10.4477 8 11 8ZM11.29 13H8.71009L9.50507 12.205C9.77844 11.9317 10.2217 11.9317 10.495 12.205L11.29 13Z" fill="#212121"/>
</svg>

<svg xmlns="http://www.w3.org/2000/svg" width="20" height="20"><path d="M6 3a3 3 0 0 0-3 3h3V3ZM3 7v6h3V7H3Zm4-1h6V3H7v3Zm7-3v3h3a3 3 0 0 0-3-3Zm3 4h-3v6h3V7Zm0 7h-3v3a3 3 0 0 0 3-3Zm-4 3v-3H7v3h6Zm-7 0v-3H3a3 3 0 0 0 3 3ZM7 7v6h.296l1.502-1.502a1.7 1.7 0 0 1 2.404 0L12.704 13H13V7H7Zm4 1a1 1 0 1 1 0 2 1 1 0 0 1 0-2Zm.29 5H8.71l.795-.795a.7.7 0 0 1 .99 0l.795.795Z"/></svg>
